X:252
T: O STRASSBURG DU WUNDERSCHOENE STADT
N: E1392
O: Europa, Mitteleuropa, Deutschland, Sueddeutschland; Schlesien;
R: Staende -, Soldaten - Lied
M: 2/4
L: 1/16
K: G
D2 | G4F2G2 | A4G2
A2 | B2d2c2B2 | A4z2
D2 | G4F2G2 | A4G2
A2 | B2d2c2B2 | A4z2
B2 | c2c2e2c2 | B3cd2
B2 | A2A2B2A2 | G2B2d2
B2 | c2c2e2c2 | B3cd2
B2 | A2A2B2A2 | G4z2

@@@ Tune index: 4936
